icon/pk/mask-one.svg

<svg viewBox="0 0 48 48" fill="none" xmlns="http://www.w3.org/2000/svg" height="1em" width="1em">
  <path d="M7.36573 16.3443C6.48571 18.7024 6 21.2881 6 23.9998C6 26.7115 6.48571 29.2971 7.36573 31.6552M11.2721 38.1419C12.9301 39.9841 14.91 41.4686 17.1101 42.4823C19.2324 43.4601 21.5595 43.9998 24 43.9998C26.4405 43.9998 28.7676 43.4601 30.8899 42.4823C33.09 41.4686 35.0699 39.9841 36.7279 38.1419M40.6343 31.6552C41.5143 29.2971 42 26.7115 42 23.9998C42 21.2881 41.5143 18.7024 40.6343 16.3443M36.7279 9.85762C35.0699 8.01539 33.09 6.53089 30.8899 5.51723C28.7676 4.53943 26.4405 3.99976 24 3.99976C19.0294 3.99976 14.5294 6.23833 11.2721 9.85762" stroke="black" stroke-width="4" stroke-linecap="round"/>
  <path d="M18 22.9998C19.6569 22.9998 21 21.6566 21 19.9998C21 18.3429 19.6569 16.9998 18 16.9998C16.3431 16.9998 15 18.3429 15 19.9998C15 21.6566 16.3431 22.9998 18 22.9998Z" fill="#2F88FF" stroke="black" stroke-width="4"/>
  <path d="M30 22.9998C31.6569 22.9998 33 21.6566 33 19.9998C33 18.3429 31.6569 16.9998 30 16.9998C28.3431 16.9998 27 18.3429 27 19.9998C27 21.6566 28.3431 22.9998 30 22.9998Z" fill="#2F88FF" stroke="black" stroke-width="4"/>
  <path d="M24 34.9998C26.7614 34.9998 29 33.6566 29 31.9998C29 30.3429 26.7614 28.9998 24 28.9998C21.2386 28.9998 19 30.3429 19 31.9998C19 33.6566 21.2386 34.9998 24 34.9998Z" fill="#2F88FF" stroke="black" stroke-width="4"/>
</svg>

<svg width="48" height="48" fill="none" xmlns="http://www.w3.org/2000/svg"><path d="M7.366 16.344A21.877 21.877 0 0 0 6 24c0 2.712.486 5.297 1.366 7.655m3.906 6.487c1.658 1.842 3.638 3.327 5.838 4.34a16.403 16.403 0 0 0 13.78 0c2.2-1.013 4.18-2.498 5.838-4.34m3.906-6.487A21.877 21.877 0 0 0 42 24c0-2.712-.486-5.298-1.366-7.656m-3.906-6.486C35.07 8.015 33.09 6.53 30.89 5.518A16.403 16.403 0 0 0 24 4c-4.97 0-9.47 2.238-12.728 5.858" stroke="#000" stroke-width="4" stroke-linecap="round"/><path d="M18 23a3 3 0 1 0 0-6 3 3 0 0 0 0 6ZM30 23a3 3 0 1 0 0-6 3 3 0 0 0 0 6ZM24 35c2.761 0 5-1.343 5-3s-2.239-3-5-3-5 1.343-5 3 2.239 3 5 3Z" fill="#2F88FF" stroke="#000" stroke-width="4"/></svg>
